!!!COM: Il Verso, Antonio
!!!CDT:
!!!PTL: L'ottavo libro de madrigali a cinque voci
!!!PPP: Venice
!!!PPR: Amadino
!!!PDT: 1603
!!!PUB-format:
!!!RISM: I 10
!!!rime: 51
!!!AGN: Madrigal
!!!SCT: Trm0051a
!!!SCA: Trm0051a
!!!original-voices: 5
!!!extant-voices: 2
!!!complete: N
!!!final: (A)D
!!!OTL: Mentre ne' cari balli il loco adorno
**kern	**text	**kern	**text
*part2	*part2	*part1	*part1
*staff2	*staff2	*staff1	*staff1
*I"Quinto	*	*I"Canto	*
*I'V	*	*I'C	*
*oclefC3	*	*oclefG2	*
*clefGv2	*	*clefG2	*
*k[b-]	*	*k[b-]	*
*C:	*	*C:	*
*omet(O3/2)	*	*omet(O3/2)	*
*M6/2	*	*M6/2	*
=1	=1	=1	=1
!!LO:TX:a:t=Prima parte.
1%3r	.	1.r	.
.	.	2dd	O-
.	.	2dd	-ve
.	.	2a	tra
=2	=2	=2	=2
0.r	.	1b-	ca-
.	.	2dd	-re
.	.	4g	dan-
.	.	4f	.
.	.	4g	.
.	.	4a	.
.	.	4b-	.
.	.	4g	.
=3	=3	=3	=3
1.r	.	4cc	.
.	.	4b-	.
.	.	4cc	.
.	.	4dd	.
.	.	2cc	.
2a	O-	1cc	-ze,
2a	-ve	.	.
2e	tra	2r	.
=4	=4	=4	=4
1f	ca-	2dd	O-
.	.	2dd	-ve
2f	-re	2a	tra
4d	dan-	1b-	ca-
4c	.	.	.
4d	.	.	.
4e	.	.	.
4f	.	2a	-re
4d	.	.	.
=5	=5	=5	=5
2.g	.	4b-	dan-
.	.	4cc	.
.	.	4dd	.
8fL	.	4ee	.
8eJ	.	.	.
2d	.	4ff	.
.	.	4dd	.
2.c	.	1ee	.
4d	.	.	.
4e	.	2ee	-ze in
4c	.	.	.
=6	=6	=6	=6
1d	.	1gg	bel
2d	-ze in	2gg	sog-
1c#X	bel	1.ee	-gior-
2c#X	sog-	.	.
=7	=7	=7	=7
1c#X	-gior-	1ee	-no,
2c#X	-no,	2ee	in
2d	in	1dd	bel
2d	bel	.	.
2B-	sog-	2dd	sog-
!!LO:TX:a:cj:t=[whole-dot] &rarr; [whole]
=8	=8	=8	=8
*M4/2	*	*M4/2	*
*omet(C)	*	*omet(C)	*
1A	-gior-	1dd	-gior-
1A	-no	1cc#X	-no
=9	=9	=9	=9
2r	.	0r	.
2.c#X	Si	.	.
4c#X	tra-	.	.
2d	-hean	.	.
=10	=10	=10	=10
2.e	le	0r	.
4e	not-	.	.
2f#X	-tur-	.	.
2g	-n'e	.	.
=11	=11	=11	=11
4d	pla-	1r	.
4d	-ci-	.	.
1d	-d'ho-	.	.
.	.	2r	.
4c#X	-re,	4r	.
[4e	Fa-	[4cc#X	Fa-
=12	=12	=12	=12
8e]	.	8cc#]	.
8e	-ce,	8cc#X	-ce,
4e	che	4cc#X	che
4f#X	nel	4dd	nel
4f#X	suo	4dd	suo
4g	fuo-	4ee	fo-
4a	-co ac-	4ff	-co ac-
4d	-ce-	8ggL	-ce-
.	.	8ff	.
4e	-se A-	8ee	.
.	.	8ddJ	.
=13	=13	=13	=13
1e	-mo-	4ccnXi	.
.	.	4a	-se A-
.	.	2cc#X	-mo-
2e	-re,	2cc#i	-re,
8r	.	2r	.
8a	Lie-	.	.
8a	-to	.	.
8g	n'a-	.	.
=14	=14	=14	=14
4f	-pri-	8r	.
.	.	8ccnXi	Lie-
4e	-va a	8cc	-to
.	.	8cc	n'a-
4.a	mez-	8cc	-pri-
.	.	8dd	-va a
.	.	8cc	mez-
8g	-za	8b-	-za
4e	not-	4a	not-
4f	-t'il	4a	-te,
2e	gior-	2r	.
=15	=15	=15	=15
2d	-no,	8r	.
.	.	8dd	Lie-
.	.	8dd	-to
.	.	8dd	n'a-
2r	.	8b-	-pri-
.	.	8g	-va a
.	.	8b-	mez-
.	.	8cc	-za
2r	.	2.dd	not-
8r	.	.	.
8a	Lie-	.	.
8a	-to	4cc#X	-t'il
8g	n'a-	.	.
=16	=16	=16	=16
8f	-pri-	2dd	gior-
8d	-va a	.	.
8f	mez-	.	.
8g	-za	.	.
4.a	not-	4ccnXi	-no,
.	.	4cc	il
8f	-t'il	.	.
4g	gior-	1cc	gior-
4c	-no;	.	.
2r	.	.	.
=17	=17	=17	=17
4r	.	2cc	-no;
4.a	E	.	.
.	.	2r	.
8g	da	.	.
4f	can-	.	.
4e	-di-	1r	.
4e	-de	.	.
4d	man	.	.
4d	vi-	.	.
=18	=18	=18	=18
8fL	-bra-	4r	.
8d	.	.	.
8f	.	4.dd	E
8gJ	.	.	.
4a	.	.	.
.	.	8cc	da
4g	-ta in-	4b-	can-
4f	-tor-	4a	-di-
4e	-no,	4a	-de
2r	.	4g	man
.	.	4cc	vi-
=19	=19	=19	=19
2r	.	8b-L	-bra-
.	.	8g	.
.	.	8b-	.
.	.	8ccJ	.
4d	vi-	4dd	.
2f	-bra-	4dd	-ta in-
.	.	8ccL	-tor-
.	.	8ddJ	.
8f	-ta,	2cc	.
8e	vi-	.	.
4e	-bra-	.	.
4e	-ta in-	4cc	-no,
=20	=20	=20	=20
2d	-tor-	4r	.
.	.	2gg	E
4e	-no,	.	.
4c	vi-	4ff#X	da
4.d	-bra-	4gg	can-
.	.	8dd	-di-
8G	-ta in-	8dd	-de
2A	-tor-	4ffnXi	man
.	.	4dd	vi-
=21	=21	=21	=21
1.A	-no	8eeL	-bra-
.	.	8dd	.
.	.	8cc	.
.	.	8b-J	.
.	.	4a	.
.	.	4a	-ta in-
.	.	2dd	-tor-
4r	.	2cc#X	-no
4A	Spar-	.	.
=22	=22	=22	=22
4d	-gea	1r	.
4d	fa-	.	.
4f	-vil-	.	.
4d	-le	.	.
4c	di	4r	.
4A	sì	4a	Spar-
4A	pu-	8dd	-gea
.	.	8dd	fa-
4d	-ro ar-	[4ff	-vil-
=23	=23	=23	=23
2c	-do-	4ff]	.
.	.	4ff	-le,
4.c	-re,	4r	.
.	.	4cc	Spar-
8A	Spar-	.	.
4A	-gea	4.dd	-gea
4d	fa-	.	.
.	.	8dd	fa-
4.c	-vil-	8eeL	-vil-
.	.	8ff	.
.	.	8gg	.
8c	-le	8eeJ	.
=24	=24	=24	=24
4d	di	4ff	.
4c	sì	4ee	-le
4A	pu-	8cc	di
.	.	8cc	sì
4F	-ro ar-	8cc	pu-
.	.	8cc	-ro ar-
2c	-do-	2cc	-do-
2F	-re	2cc	-re
=25	=25	=25	=25
2f	Che	2cc	Che
2.e	ren-	2.cc#X	ren-
4e	-dea	4cc#X	-dea
4f	va-	4dd	va-
4d	-go	4gg	-go
=26	=26	=26	=26
4.c	d'ar-	4.ee	d'ar-
8c	-der	8ee	-der
4A	se-	4ee	se-
4a	-co il	4ff	-co il
1g	co-	1dd	co-
=27	=27	=27	=27
2f#X	-re,	1dd	-re,
4r	.	.	.
8d	E	.	.
8e	scher-	.	.
4fnXi	-zar	1r	.
8f	qual	.	.
8d	far-	.	.
4g	-fal-	.	.
4g	-la,	.	.
=28	=28	=28	=28
4r	.	4r	.
8f	E	8dd	E
8g	scher-	8ee	scher-
2a	-zar,	2ff	-zar
1r	.	4b-	qual
.	.	4cc	far-
.	.	4dd	-fal-
.	.	4a	-la
=29	=29	=29	=29
4r	.	4r	.
8d	E	4a	al
8d	scher-	.	.
4e	-zar	4.a	rag-
8f	qual	.	.
8d	far-	8b-	.
4a	-fal-	8ccL	.
.	.	8aJ	.
4f	-la al	2dd	.
2e	rag-	.	.
.	.	4cc#X	.
=30	=30	=30	=30
2.d	-gio,	8dd	-gio a-
.	.	8ccnXiL	-dor-
.	.	8dd	.
.	.	8eeJ	.
.	.	2ff	.
8A	E	.	.
8B-	scher-	.	.
4c	-zar	4ee	-no,
8c	qual	4ee	al
8c	far-	.	.
4c	-fal-	8aL	rag-
.	.	8bnX	.
4c	-la al	8cc	.
.	.	8aJ	.
=31	=31	=31	=31
4BnX	rag-	4bnX	.
4c	-gio a-	4e	-gio a-
2BnX	-dor-	2ee	-dor-
1Al	-no.	1cc#Xl	-no.
=32||	=32||	=32||	=32||
!!LO:TX:a:t=Seconda parte.
2f#X	Quan-	0r	.
2g	-d'ec-	.	.
4g	-co a	.	.
4e	te,	.	.
4fnXi	man	.	.
[4a	cru-	.	.
=33	=33	=33	=33
4a]	.	1r	.
8gL	.	.	.
8fJ	.	.	.
2a	.	.	.
2g	-da,	2r	.
4r	.	2dd	Quan-
4f	Quan-	.	.
=34	=34	=34	=34
2.e	-d'ec-	2.ee	-d'ec-
4d	-co a	4ff	-co a
4A	te,	4ee	te,
4d	man	4dd	man
2d	cru-	[2dd	cru-
=35	=35	=35	=35
2.A	-da, of-	2dd]	.
.	.	2cc#i	.
4e	-fer-	.	.
2f#X	-ta	2dd	-da, of-
2g	fu-	2dd	-fer-
=36	=36	=36	=36
4fnXi	.	4dd	-ta
8eL	.	4.dd	fu-
8dJ	.	.	.
2e	.	.	.
.	.	16cc#XL	.
.	.	16bnXJ	.
.	.	4cc#X	.
2d	-e,	2dd	-e,
4d	E	2r	.
8A	da	.	.
8B-	te	.	.
=37	=37	=37	=37
4c	pre-	0r	.
4c	-sa	.	.
2r	.	.	.
4r	.	.	.
4f	e	.	.
4f	spen-	.	.
4e	-ta,	.	.
=38	=38	=38	=38
1r	.	1r	.
3%2f	cie-	3%2cc	cie-
3d	-chi e	3b-	-chi e
=39	=39	=39	=39
2e	me-	2bnX	me-
4e	-sti	2bnX	-sti
4e	Re-	.	.
8A	-star	1r	.
8B-	mil-	.	.
4.c	-l'oc-	.	.
8c	-chi a	.	.
8c	lo	.	.
8d	spi-	.	.
=40	=40	=40	=40
8e	-rar	1r	.
8c	d'un	.	.
4.f	lu-	.	.
16eL	.	.	.
16dJ	.	.	.
4e	.	.	.
4f	-me,	4r	.
4f	a	4a	Re-
4e-X	lo	8b-	-star
.	.	8cc	mil-
4f	spi-	[4dd	-l'oc-
=41	=41	=41	=41
4d	-rar,	8dd]	.
.	.	8dd	-chi a
4c	a	8ee	lo
.	.	8ff	spi-
4.G	lo	2.gg	-rar
8G	spi-	.	.
8cL	-rar	.	.
8d	.	.	.
8enXi	.	2ee	d'un
8fJ	.	.	.
4g	.	.	.
4g	d'un	[4dd	lu-
=42	=42	=42	=42
2e	lu-	8dd]L	.
.	.	16cc#X	.
.	.	16bnXJ	.
.	.	4cc#X	.
4d	-me,	4dd	-me,
2f	a	4a	Re-
.	.	8a	-star
.	.	8b-	mil-
8e	lo	4.ccnX	-l'oc-
8e	spi-	.	.
4e	-rar	.	.
.	.	8cc	-chi a
4a	d'un	8cc	lo
.	.	8dd	spi-
=43	=43	=43	=43
4g	lu-	4ee	-rar
4g	-me,	4gg	d'un
2r	.	2ff	lu-
4r	.	4ee	-me,
4F	a	2a	a
8A	lo	.	.
8B-	spi-	.	.
[4c	-rar	8a	lo
.	.	8b-	spi-
=44	=44	=44	=44
4c]	.	8cc	-rar
.	.	8a	d'un
4f	d'un	4.dd	lu-
2e	lu-	.	.
.	.	16cc#XL	.
.	.	16bnXJ	.
.	.	4cc#X	.
2d	-me.	2dd	-me.
2r	.	2r	.
=45	=45	=45	=45
2r	.	1ccnXi	Ahi!,
2f	Ahi!,	.	.
4r	.	4r	.
8e	co-	8gg	co-
8d	-me al-	8ff	-me al-
4c#X	-l'hor	4ee	-l'hor
4d	can-	4dd	can-
=46	=46	=46	=46
4e	-gia-	4cc#X	-gia-
4.f#X	-sti ar-	4.dd	-sti ar-
8f#X	-te e	8dd	-te e
4f#X	co-	4dd	co-
2g	-stu-	2dd	-stu-
4e	-me,	4cc#X	-me,
[4e	Ahi!,	[4cc#X	Ahi!,
=47	=47	=47	=47
4e]	.	4cc#]	.
8a	co-	8ff	co-
8g	-me al-	8dd	-me al-
4fnXi	-l'hor	4dd	-l'hor
4f	can-	4ccnXi	can-
4g	-gia-	4ee-X	-gia-
4.g	-sti ar-	4.dd	-sti ar-
8g	-te e	8dd	-te e
4g	co-	4dd	co-
=48	=48	=48	=48
2f	-stu-	2dd	-stu-
2e	-me:	2cc#X	-me:
2r	.	2r	.
4e	Tu,	2ccnXi	Tu,
4e	mi-	.	.
=49	=49	=49	=49
4f	-ni-	4a	mi-
8e	-stra	4.dd	-ni-
8d	d'A-	.	.
2a	-mor,	.	.
.	.	8cc#X	-stra
.	.	4cc#X	d'A-
8f	Tu,	2dd	-mor,
8f	mi-	.	.
4.g	-ni-	.	.
.	.	2dd	tu
8f	-stra	.	.
4f	d'A-	.	.
=50	=50	=50	=50
4e	-mor,	2ee	che
4e	d'A-	.	.
4d	-mor,	4ff	le
4b-	tu	2gg	su-
4a	che	.	.
4a	le	4ff#X	-e,
2g	su-	4r	.
.	.	[4ee-X	tu,
=51	=51	=51	=51
1g	-e,	4ee-]	.
.	.	8dd	che
.	.	8cc	le
.	.	4dd	su-
.	.	4dd	-e
4r	.	4.dd	Fiam-
4.a	Tu,	.	.
.	.	8dd	-me
.	.	4cc#X	suo-
8g	mi-	.	.
[4f	-ni-	[4dd	-li av-
=52	=52	=52	=52
4f]	.	4dd]	.
8f	-stra	4dd	-vi-
8d	d'A-	.	.
2e	-mor,	1aa	-var,
2e	d'A-	.	.
2A	-mor,	2r	.
=53	=53	=53	=53
2r	.	4r	.
.	.	4.dd	tu,
4r	.	.	.
.	.	8cc	che
8e	che	4a	le
8f	le	.	.
4g	su-	2b-	su-
4G	-e	.	.
4d	Fiam-	2a	-e
4d	-me	.	.
=54	=54	=54	=54
4G	suo-	8b-L	Fiam-
.	.	8a	.
8G	-li av-	8b-	.
8A	-vi-	8ccJ	.
4B-	-var,	4dd	.
2c	tu	4cc	-me
.	.	4cc	suo-
8B-	l'e-	8dd	-li av-
8G	-stin-	8dd	-vi-
2d	-gue-	2dd	-var,
=55	=55	=55	=55
4G	-sti,	4dd	tu
4.d	tu	4dd	l'e-
.	.	4dd	-stin-
8d	l'e-	.	.
4A	-stin-	4.dd	-gue-
2A	-gue-	.	.
.	.	16cc#XL	.
.	.	16bnXJ	.
.	.	4cc#X	.
2Al	-sti!	2ddl	-sti!
=56	=56	=56	=56
0r	.	0r	.
==	==	==	==
*-	*-	*-	*-
!!!system-decoration: [*]
!!!RDF**kern: i = editorial accidental
!!!RDF**kern: l = terminal long
!!!ENC: Emiliano Ricciardi
!!!END: 2019/01/01
!!!EED: Ricciardi, Emiliano
!!!EEV: 2019/01/14
!!!YEC: Copyright 2018 Emiliano Ricciardi, All Rights Reserved
!!!ONB: Translated from MusicXML on 2019/01/14 and edited by Craig Stuart Sapp
!!@@BEGIN:	VERSEDATA
!!@SOLERTI:	51
!!@CATALOGNUM:	Trm0051
!!@LAST_MODIFIED: 2020/07/12
!!@TITLE:		Mentre ne' cari balli in loco adorno
!!@GENRE:		sonetto
!!@MANUSRC:	Amz, Brn, C, P<sub>6</sub>, Ts<sub>1</sub>, V<sub>8</sub>, V<sub>13/TS1</sub>, W
!!@PRINTSRC:	4, 8, 9, 11, 12, 13, 15, 20, 24, 29, 33, 67, 85, 87, 141, 166, 169, 170
!!@@BEGIN:	VERSES
!!@ABOUTIT:	Si lamenta de la sua donna, che, ballandosi al ballo del torchio, con estinguerlo ponesse fine al ballo.
!!@ABOUTEN:	He complains about his lady, who, during a dance of the torch, ended the dance by extinguishing [the torch].
!!@EDITOR:	Solerti, Angelo
!!@EDITION_TITLE: Le Rime di Torquato Tasso
!!@EDITION_LOC:	Bologna
!!@EDITION_PUB:	Romagnoli-Dall’Acqua
!!@EDITION_DATE:  1898-1902
!!@EDITION_VOL:	2
!!@EDITION_PAGE:  76-77
!!@TRANSLATOR:	Emiliano Ricciardi and Amyrose McCue Gill
!!@VERSE:
!!	Mentre ne' cari balli in loco adorno
!!	Si traean le notturne e placide ore,
!!	Face, che nel suo foco accese Amore,
!!	Lieto n'apriva a mezza notte il giorno;
!!@VERSE:
!!	E da candide man vibrata intorno
!!	Spargea faville di sì puro ardore
!!	Che pareva apportar gioia ed onore
!!	A' pochi eletti, a gli altri invidia e scorno;
!!@VERSE:
!!	Quando a te data fu, man cruda e bella,
!!	E da te presa e spenta, e ciechi e mesti
!!	Restar mill'occhi a lo sparir d'un lume.
!!@VERSE:
!!	Ahi, come allor cangiasti arte e costume:
!!	Tu, ch'accender solei l'aurea facella,
!!	Tu, ministra d'Amor, tu l'estinguesti!
!!@TVERSE:
!!	While, during splendid dances in an adorned place
!!	The tranquil nighttime hours draw on,
!!	A blaze, whose fire ignited Love,
!!	Opened a happy day at midnight;
!!@TVERSE:
!!	And from pale hands quivering all around,
!!	[It] scattered sparks of such pure desire
!!	That it seemed to bring joy and honor
!!	To an elect few; to others, envy and shame.
!!@TVERSE:
!!	When it was given to you, cruel and beautiful hand,
!!	And by you taken and stifled, both blind and miserable
!!	A thousand eyes became with the disappearance of one light.
!!@TVERSE:
!!	Alas, how then you changed your art and habit:
!!	You, who once kindled the golden glow,
!!	You, minister of Love, you extinguished it!
!!@@END:		VERSES
!!@OTHER_CRIT_ED:   Torquato Tasso, <i>Rime d’amore (secondo il codice
!!		Chigiano L VIII 302)</i>, eds. Franco Gavazzeni and
!!		Vercingetorige Martignone, vol. 4 of <i>Edizione
!!		Nazionale delle opere di Torquato Tasso</i>
!!		(Alessandria: Edizioni Dell’Orso, 2004), 37.
!!@ATTRIBUTION_ABOUT:	Secure
!!		<br>
!!		Among other authoritative sources (see Literary
!!		Sources), this poem appears in the autograph Chigiano
!!		L.VIII.302 (Biblioteca Vaticana, Rome), compiled
!!		around 1584&ndash;85.
!!@DATING:
!!@DEDICATEE:	Bendidio, Lucrezia
!!@COMMENTARY:
!!@@END:		VERSEDATA
!!@@BEGIN:	SETTING
!!@CATALOGNUM:	Trm0051a
!!@RIMETITLE:	Mentre ne' cari balli il loco adorno
!!@SOLERTI:	51
!!@COMPOSER:	Il Verso, Antonio
!!@PRINCEPSTITLE:	L'ottavo libro de madrigali a cinque voci
!!@PRINCEPSLOC:	Venetia
!!@NORMLOC:	Venice
!!@NORMPUB:	Amadino
!!@NORMPUBSHORT:	Amadino
!!@PRINCEPSPUB:	Amadino
!!@PRINCEPSYEAR:	1603
!!@PRINCEPSRISM:	I 10
!!@REPRINTS:	
!!@OVOICES:	5
!!@EXTANTVOICES:	2
!!@PARTBOOKS:	
!!@EXTPARTBOOKS:	
!!@OCLEFS:	G2,C3
!!@OMENSURATION:	O3/2; C
!!@OKEYSIG:	b-
!!@FINAL:	(A)D
!!@TIMPEDITOR:	Ricciardi, Emiliano
!!@NOTE:		
!!@@END:		SETTING
